incomeartour/img/icons/telegram.svg

<svg width="26" height="24" viewBox="0 0 26 24" fill="none" xmlns="http://www.w3.org/2000/svg">
<path d="M20.459 23.181C20.2637 23.181 20.0698 23.1232 19.9034 23.0104L13.6174 18.7464L10.2459 21.1724C9.98151 21.3625 9.64069 21.4104 9.33366 21.3006C9.02702 21.1906 8.79413 20.9366 8.71101 20.6216L7.01815 14.2062L0.969383 11.8933C0.588589 11.7477 0.336046 11.3834 0.333275 10.9756C0.330504 10.5679 0.578034 10.2002 0.95698 10.0494L23.9566 0.897667C24.061 0.853333 24.1714 0.827736 24.2828 0.820875C24.3226 0.8185 24.3626 0.8185 24.4023 0.820743C24.633 0.834465 24.8595 0.92841 25.0363 1.10179C25.0547 1.11973 25.0721 1.13807 25.0886 1.1572C25.235 1.32451 25.3155 1.5285 25.3307 1.73631C25.3344 1.78856 25.3341 1.84147 25.3295 1.89438C25.3263 1.93212 25.3209 1.96972 25.3133 2.00706L21.4311 22.3766C21.3687 22.7039 21.1459 22.9778 20.8382 23.1054C20.7162 23.156 20.5873 23.181 20.459 23.181ZM14.1693 16.7293L19.7687 20.5273L22.7894 4.6775L11.8793 15.1759L14.1429 16.7114C14.152 16.7171 14.1607 16.7232 14.1693 16.7293ZM9.50809 15.8847L10.2578 18.7255L11.8731 17.5631L9.75799 16.1284C9.6597 16.0619 9.57551 15.979 9.50809 15.8847ZM4.04569 10.9504L8.19906 12.5384C8.4966 12.6521 8.72117 12.9023 8.80245 13.2103L9.32917 15.2065C9.35332 14.9762 9.45769 14.7596 9.62724 14.5964L20.0231 4.59306L4.04569 10.9504Z" fill="#272727"/>
</svg>

<svg width="26" height="24" fill="none" xmlns="http://www.w3.org/2000/svg"><path d="M20.459 23.181a.99.99 0 01-.556-.17l-6.286-4.265-3.371 2.426a.99.99 0 01-1.535-.55l-1.693-6.416L.97 11.893a.99.99 0 01-.012-1.844l23-9.151a.99.99 0 011.356 1.11l-3.882 20.369a.99.99 0 01-.972.804zm-6.29-6.452l5.6 3.798 3.02-15.85-10.91 10.499 2.264 1.535.026.018zm-4.66-.844l.749 2.84 1.615-1.162-2.115-1.435a.987.987 0 01-.25-.243zM4.045 10.95l4.153 1.588a.99.99 0 01.603.672l.527 1.996a.99.99 0 01.298-.61L20.023 4.593 4.046 10.95z" fill="#272727"/></svg>
